!!!!SEGMENT: 008-1-Sm-002.krn
!!!COM: [Chopin, Fryderyk]
!!!OPS: Op. 8
!!!PPR: M. Schlesinger
!!!PPP: Paris
!!!OMV: 2
!!!NIFC-rismID: 300605222
!!!NIFC-shelfmark: PL-Wbfc 2213/n
!!!OTL: Trio
!!!PTL: Premier Trio | pour Piano, Violon et Violoncelle
!!!OMD: M.M. [half-note] = 69.
!!!OMD: Vivace.
**kern	**kern	**dynam	**kern	**dynam	**kern	**dynam
*part3	*part3	*part3	*part2	*part2	*part1	*part1
*staff4	*staff3	*	*staff2	*staff2	*staff1	*staff1
*	*I"[Piano]	*	*I"VIOLONCELLO.	*	*I"VIOLINO.	*
*clefG2	*clefG2	*	*clefF4	*	*clefG2	*
*k[f#]	*k[f#]	*	*k[f#]	*	*k[f#]	*
*G:	*G:	*	*G:	*	*G:	*
*M3/4	*M3/4	*	*M3/4	*	*M3/4	*
*>[A,A1,A,A2,B,B1,B,B2,C,C,D,D,A,A1,A,A2,B,B1,B,B2]	*>[A,A1,A,A2,B,B1,B,B2,C,C,D,A,A1,A,A2,B,B1,B,B2]	*	*>[A,A1,A,A2,B,B1,B,B2,C,C,D,D,A,A1,A,A2,B,B1,B,B2]	*	*>[A,A1,A,A2,B,B1,B,B2,C,C,D,D,A,A1,A,A2,B,B1,B,B2]	*
*	*	*	*	*	*kcancel	*
*>A	*>A	*	*>A	*>A	*>A	*>A
!	!LO:TX:b:B:t=Scherzo.	!	!LO:TX:a:B:t=SCHERZO.	!	!LO:TX:B:a:t=SCHERZO.	!
!LO:TX:t=P:główny klucz F4, zmiana na G4 bezpośrednio przed 4gg:problem	!	!	!	!	!	!LO:DY:rj
!	!	!	!	!	!	!LO:HP:a
[4g	[4gg	f	(>4c^<	.	(<4e	p>
=1	=1	=1	=1	=1	=1	=1
4g]	(>4gg]	.	4B	.	4d	.
4gg	4ggg`>)	.	4B-X	.	4c#X	.
4f#	(>4ff#^<	.	4A	.	4cn	]
=2	=2	=2	=2	=2	=2	=2
8eL	8eeL)	.	2G	.	4B	.
8ee)	8eee)	.	.	.	.	.
8f#	(>8ff#	.	.	.	4B-X	.
8eJ	8eeJ	.	.	.	.	.
4d	4dd^<)	.	4F#	.	4A	.
=3	=3	=3	=3	=3	=3	=3
8cL	(>8ccL	.	4E	.	2G)	.
8cc	8ccc)	.	.	.	.	.
8c	(>8cc	.	4E-X	.	.	.
8d	8dd	.	.	.	.	.
8B	8b	.	4D	.	4g (<4Bny	.
8cJ	8ccJ)	.	.	.	.	.
*clefF4	*	*	*	*	*	*
=4	=4	=4	=4	=4	=4	=4
8qB/	8qb/	.	.	.	.	.
4A'>	4a'<	.	4D	.	4f# 4c	.
4G'>	4g'<	.	4GG)	.	4g`< 4B)	.
4r	4r	.	4r	.	(>4d	.
*	*	*	*clefC4	*	*	*
=5	=5	=5	=5	=5	=5	=5
!	!LO:TX:b:t=legato.	!	!LO:TX:t=espres.	!	!	!
8GGL<	8B<L	p	(>4B	.	4g	.
8E	8G<	.	.	.	.	.
8C	8E<	.	4c	.	4a	.
8AA	8c<	.	.	.	.	.
!	!	!	!LO:TX:t=P:diminuendolike accent:problem	!	!	!
8D	8F#<	.	8d^<L	.	4b/	.
8DDJ	8d<J	.	8cJ	.	.	.
=6	=6	=6	=6	=6	=6	=6
8GGL<	8B<L	.	4B	.	2g	.
8BB	8G<	.	.	.	.	.
8C	8A<	.	8cL	.	.	.
8D	8B<	.	8BJ	.	.	.
8E	8c<	.	4A	.	4a	.
8F#XJ	8d<J	.	.	.	.	.
!!LO:LB:g=original
=7	=7	=7	=7	=7	=7	=7
8GL	8BL	.	4G\)	.	2b	.
8A	8c	.	.	.	.	.
8B	8d	.	4g	>	.	.
8d	8b	.	.	.	.	.
8c	8a	.	4e	.	8ccL	.
8eJ	8gJ	.	.	.	8bJ	.
=8	=8	=8	=8	=8	=8	=8
8dL	8f#L	.	8f#L	.	(>4a)	.
8c	8a	.	8eJ	]	.	.
!	!	!	!LO:TX:t=P:diminuendolike accent:problem	!	!	!
8B	8dd	.	2d^<	.	4b/	.
!	!LO:TX:b:t=poco_:dur=7qe:ext=ud:problem:text with extention lines	!	!	!	!	!
8d	8fn	.	.	.	.	.
8c	8e	.	.	.	4e	.
8BJ	8bJ	.	.	.	.	.
!!LO:LB:g=original
=9	=9	=9	=9	=9	=9	=9
8AL	8ccL	.	(>4c	.	4a\	.
8fn	8a	.	.	.	.	.
8d	8fn	.	4d	.	4b	.
8B	8b	.	.	.	.	.
8e	8g#X	.	8eL	.	4cc)	.
8EJ	8eeJ	.	8dJ)	.	.	.
!!LO:LB:g=original
=10	=10	=10	=10	=10	=10	=10
8AL	8ccL>	.	4c	.	(>2a^<	.
8c>	8a	.	.	.	.	.
8d>	8b	.	8fnL	.	.	.
8e>	8cc	.	8eJ	.	.	.
8f#X>	8dd	.	4d	.	4b	.
8g#X>J	8eeJ	.	.	.	.	.
=11	=11	=11	=11	=11	=11	=11
8a>L	8ccL>	<	4c	.	4.cc	.
8b>	8dd	.	.	.	.	.
8cc>	8ee	.	4A	.	.	.
8b>	8bb	.	.	.	8dd	.
8cc>	8aa	.	(>8aL	.	4ee	.
8cc#X>J	8eeJ	.	8gJ	.	.	.
=12	=12	=12	=12	=12	=12	=12
8dd>\L	8ff#L>	.	8f#XL	>	4.a)	.
8ee>\	8gg	.	8eJ	.	.	.
8ff#>\	8aa	.	4d)	]	.	.
8gg>\	8ccc#X	.	.	.	8r	.
8ff#>\	8ddd	.	4r	.	4r	.
8dd>\J	(>8ff#J	.	.	.	.	.
*clefG2	*	*	*	*	*	*
=13	=13	=13	=13	=13	=13	=13
*	*^	*	*	*	*	*
!	!	!	!	!LO:TX:t=P:problem: 1 nad pauzą	!	!	!
!	!	!	!	!LO:TX:a:t=1	!	!	!
8ccL	8ddd	4ee)	f	2.rc	.	(<2.d^<	.
8a	4ccc	.	.	.	.	.	.
8f#	.	8ee-XL	.	.	.	.	.
8g	8bbL	8dd	.	.	.	.	.
8e	8bb-X	8cc#X	.	.	.	.	.
8f#J	[8aaJ	(8ccnJ	.	.	.	.	.
!!LO:LB:g=original
=14	=14	=14	=14	=14	=14	=14	=14
8gL	8aa]	4b)	.	4r	.	4g)`<	.
8e	4gg	.	.	.	.	.	.
8c#X	.	8b-XL	.	(>2A	.	4r	.
8d	8ff#XL	8a	.	.	.	.	.
8B	8ffn	8g#X	.	.	.	4r	.
8c#J	[8eeJ	8gnJ	.	.	.	.	.
*clefF4	*	*	*	*	*	*	*
=15	=15	=15	=15	=15	=15	=15	=15
8dL	8ee]	4fn	.	4d)	.	4r	.
8B-X	4dd	.	.	.	.	.	.
8G#X	.	4e	.	4r	.	(<2e^<	.
8A	8cc#XL	.	.	.	.	.	.
8F#	8ccn	8d#XL	.	4r	.	.	.
8G#J	[8bJ	8dnJ	.	.	.	.	.
*	*	*	*	*clefF4	*	*	*
=16	=16	=16	=16	=16	=16	=16	=16
8AL	8b]	4c	.	4r	.	4a)	.
8Fn	4a	.	.	.	.	.	.
8D#X	.	4B	.	(<4BB^<	.	4r	.
8E	8gL	.	.	.	.	.	.
8AA	8f#X	8e-XL 8c	.	8AAL	.	4r	.
8BBJ	8gJ	8dJ	.	8BBJ	.	.	.
=17	=17	=17	=17	=17	=17	=17	=17
2.C\	2e	2.g/ 2.c/ 2.G</	fz	2.C)	.	(>8eL	.
.	.	.	.	.	.	8d#X	.
.	.	.	.	.	.	8e	.
.	.	.	.	.	.	8f#	<
.	4e-X	.	.	.	.	8g	.
.	.	.	.	.	.	8aJ	.
*	*v	*v	*	*	*	*	*
=18	=18	=18	=18	=18	=18	=18
2.GG	2.g 2.d 2.B< 2.G<	.	2.GG	.	8bL	.
.	.	.	.	.	8cc	.
.	.	.	.	.	8ee	>
.	.	.	.	.	8dd	.
.	.	.	.	.	8b	.
.	.	.	.	.	8gJ)	]
=19	=19	=19	=19	=19	=19	=19
*	*^	*	*	*	*	*
(<8CT<L	(>2dd	2.g 2.e	p	2.C	.	(>2e	.
!	!	!	!LO:HP:b=2	!	!	!	!
8BB	.	.	<	.	.	.	.
8C	.	.	.	.	.	.	.
8D	.	.	.	.	.	.	.
8E	4cc)	.	.	.	.	4cc	.
8F#J)	.	.	[[	.	.	.	.
=20	=20	=20	=20	=20	=20	=20	=20
(8GL	(2cc	2.g 2.d	[	2.GG	.	2d	.
8A	.	.	.	.	.	.	.
8c	.	.	.	.	.	.	.
8B	.	.	.	.	.	.	.
8G	4b)	.	.	.	.	[>4b)	<
8DJ)	.	.	.	.	.	.	.
!!LO:LB:g=original
=21	=21	=21	=21	=21	=21	=21	=21
*	*	*^	*	*	*	*	*
2GG	2b 2d	2rDyy	2.B\	.	(>8GGL	.	4b]	[
.	.	.	.	.	8FF#	.	.	.
.	.	.	.	.	8GG	.	4g	.
.	.	.	.	.	8AA	<	.	.
4BB	4a	8d#XL	.	.	8BB	.	4f#X	.
.	.	8f#J	.	.	8D#XJ	[[	.	.
!!LO:LB:g=original
=22	=22	=22	=22	=22	=22	=22	=22	=22
2E	4a	2.e	2B\	.	8EL	.	2e^<	.
.	.	.	.	.	8F#X	>	.	.
.	2g	.	.	.	8A	.	.	.
.	.	.	.	.	8G	]	.	.
4C#X\	.	.	4A#X\	.	8E	.	(<4g	.
.	.	.	.	.	8C#XJ	.	.	.
*	*	*v	*v	*	*	*	*	*
*	*v	*v	*	*	*	*	*
=23	=23	=23	=23	=23	=23	=23
4D	4d 4B	.	4D)	.	4d)	.
4r	4r	.	4r	.	(>\8c#XL	<
.	.	.	.	.	8d	[
!	!	!	!LO:TX:a:t=pizz.	!	!	!
4D\ 4DD\	8e^>L 8c 8F#X<	.	4DD'<	.	8ccn	>
.	8dJ	.	.	.	8bJ)	]
=	=	=	=	=	=	=
!!LO:TX:a:B:t=1.a
!!LO:TX:a:B:t=1|a.
*>A1	*>A1	*	*>A1	*>A1	*>A1	*>A1
4GG\	4g 4B< 4G<	fz	4GG'<	.	4g`<	.
4GGG	4r	.	4r	.	4r	.
=24:|!	=24:|!	=24:|!	=24:|!	=24:|!	=24:|!	=24:|!
!!LO:TX:a:B:t=2.a
!!LO:TX:a:B:t=2|a.
*>A2	*>A2	*	*>A2	*>A2	*>A2	*>A2
4GG\	8gL 8B< 8G<	.	4GG`<	.	4g	.
.	8d	.	.	.	.	.
4r	8g	.	4r	.	4r	.
.	8bJ	.	.	.	.	.
!	!	!LO:DY:rj	!LO:TX:t=arco.	!	!	!
[4d	[4dd^<	f	4G	.	4b	.
=25!|:	=25!|:	=25!|:	=25!|:	=25!|:	=25!|:	=25!|:
*>B	*>B	*	*>B	*>B	*>B	*>B
4d]	(4dd]	.	(>4F#	.	(<4a	>
*clefG2	*	*	*	*	*	*
4dd`>	4ddd`>)	.	4Fn	.	4g#X	.
*clefF4	*	*	*	*	*	*
[4c	[4cc	.	4E	.	4gn	]
=26	=26	=26	=26	=26	=26	=26
8cL]	8ccL<]	.	4D#X	.	4f#	.
8B	8b	.	.	.	.	.
8AT	8aT	.	4Dn	.	4fn	.
8G#XJ	8g#XJ	.	.	.	.	.
(>4A	(4a^<\	.	4C#X	.	4e	.
=27	=27	=27	=27	=27	=27	=27
8aL)	8aaL)	.	4Cn	.	4e-X	.
8A	8a	.	.	.	.	.
8G	8g	.	4BB	.	4d)	.
8g	8gg	.	.	.	.	.
8G	8g	.	4C)	.	(<4en	.
8AJ	8aJ	.	.	.	.	.
!!LO:LB:g=original
=28	=28	=28	=28	=28	=28	=28
4c 4A 4D	4f#`<	.	4D	.	4f#X	.
4B 4G 4E	4g`<	.	4E	.	4g)	.
4r	4r	.	4r	.	4r	.
=29	=29	=29	=29	=29	=29	=29
!	!	!LO:DY:rj	!	!LO:DY:rj	!	!
4d 4B 4Fn	4gg#X`> 4g#X`>	f	4Fn`>	f	4g#X`<	ff
4e-X 4c 4F#X	4aa`> 4a`>	.	4F#X`>	.	4a`<	.
4r	4r	.	4r	.	4r	.
!!LO:LB:g=original
=30	=30	=30	=30	=30	=30	=30
!	!	!LO:DY:rj	!	!LO:DY:rj	!	!
4en`> 4c#X`> 4F#`>	4aa#X 4a#X	p	(>4F#	p>	(<4a#X	p
4d#X`> 4B`>	8bbL 8b	.	4BB)	]	4b/)	.
.	(>8ff#	.	.	.	.	.
4r	8dd#X	.	4r	.	(>8dd#XL	.
.	8eeJ	.	.	.	8bJ	.
=31	=31	=31	=31	=31	=31	=31
!	!	!	!LO:TX:a:t=pizz.	!	!	!
4e 4A#X 4F#	8ff#L	.	4F#'>	.	2f#	.
.	8gg#X	.	.	.	.	.
4e 4A# 4F#	8ff#	.	4FF#'<	.	.	.
.	8ee	.	.	.	.	.
4e 4A# 4F#	8cc#X	.	4FF#'<	.	4a#X	.
.	8ff#J	.	.	.	.	.
=32	=32	=32	=32	=32	=32	=32
4d#X 4F#X 4BB	4b)	.	4BB'<	.	4b)	.
!	!	!	!LO:TX:a:t=arco.	!	!	!
4BBB	4r	.	4r	.	4r	.
8BL	(>8d#XL	.	(>4B^<	.	4b	.
8eJ	8gJ	.	.	.	.	.
=33	=33	=33	=33	=33	=33	=33
!LO:TX:a:t=legatiss&colon;	!	!	!	!	!	!
8d#X>L	8f#L	.	4B	.	2cc^<	.
8c>	8a	.	.	.	.	.
8d#>	8cc	p	4A	.	.	.
8f#>	8dd#X	.	.	.	.	.
8g>	8ee	.	4G	.	[>4b	.
8e>J	8ggJ	.	.	.	.	.
=34	=34	=34	=34	=34	=34	=34
8f#>L	8aaL	.	4D#X	.	4b]	.
8b>J	8dd#X	.	.	.	.	.
4d#X>\	8ff#	.	4F#	.	4a	.
.	8b	.	.	.	.	.
8e>L	8gg	.	4E	.	4g	.
8g>J	8eeJ)	.	.	.	.	.
!!LO:LB:g=original
=35	=35	=35	=35	=35	=35	=35
4c'>	8aL	.	(<2.C)	.	(<8f#L	.
.	8e	.	.	.	8e	.
4C\	8A	.	.	.	8d#X	.
.	8e	.	.	.	8e	.
(4C\	8A#X	.	.	.	8g	.
.	8eJ	.	.	.	8f#J)	.
=36	=36	=36	=36	=36	=36	=36
4BB\	8G<L	.	4BB)	.	(<4e	.
.	8B<	.	.	.	.	.
4BBB\)	8F#X<	.	4r	.	4d#X	.
.	8B<J	.	.	.	.	.
8BL	8d#XL	.	(>4B	>	4b/)	.
8eJ	8gJ	.	.	.	.	.
=37	=37	=37	=37	=37	=37	=37
8d#X>L	8f#L>	<	8AL	.	2cc^<	.
8c>	8a	.	8G#X	.	.	.
8d#>	8cc	.	8B	.	.	.
8f#>	8dd#X	.	8AJ	]	.	.
8g>	8ee	.	4Gn)	.	(<4b	.
8e>J	8ggJ	.	.	.	.	.
!!LO:LB:g=original
=38	=38	=38	=38	=38	=38	=38
8d#X>L	8aaL>	.	(>2F#^<	.	8aL	.
8b>J	8dd#X	.	.	.	8g#X	.
4d#>	8ff#X	.	.	.	8b	.
.	8b	.	.	.	8aJ	.
8e>L	8gg	.	4E)	.	4gn)^<	.
8g>J	8eeJ	.	.	.	.	.
=39	=39	=39	=39	=39	=39	=39
(4c	8eL	.	(<2.C	.	(<8f#L	.
.	8ee	.	.	.	8e	.
4C\)	8e	.	.	.	8d#X	.
.	8G<	.	.	.	8e	.
4C\ 4CC\	8E<	.	.	.	8G	.
.	[8eJ	.	.	.	8AJ	.
!!LO:LB:g=original
=40	=40	=40	=40	=40	=40	=40
*^	*	*	*	*	*	*
*	*	*^	*	*	*	*	*
8qBBB	.	.	.	.	.	.	.	.
4.F#\	4BB	8e]	4rAyy	.	4BB`<)	.	8B)	.
.	.	4d#X	.	.	.	.	16r	.
.	.	.	.	.	.	.	16g#	.
.	2FF#^>	.	2A#X</	.	(<2FF#	.	[<2f#	>
8EL<	.	(<8c#XL	.	.	.	.	.	.
8F#	.	8d#	.	.	.	.	.	.
8EJ	.	8c#J	.	.	.	.	.	.
=41	=41	=41	=41	=41	=41	=41	=41	=41
4D#\ 4BB\	4ryy	8g#X)	4B<	.	4BB)	.	4f#]	]
.	.	4f#	.	.	.	.	.	.
!	!	!	!	!	!	!	!	!LO:DY:a
8C#XL<	2FF#	.	2A#X<^>/	.	(<2FF#	.	[2f#	>
8G#X	.	8eL	.	.	.	.	.	.
8F#	.	8d#X	.	.	.	.	.	.
8EJ	.	8c#XJ	.	.	.	.	.	.
*v	*v	*	*	*	*	*	*	*
*	*v	*v	*	*	*	*	*
!!LO:PB:g=original
=42	=42	=42	=42	=42	=42	=42
!	!	!	!	!	!	!LO:DY:a
8D#XL	8BL	.	4BB)	.	4f#]	]pp
8BB	8F#<	.	.	.	.	.
8D#	8B	<	4r	.	4r	.
8F#	8d#X	.	.	.	.	.
8B	8f#	.	4r	.	4r	.
8d#yJ	8bJ	[	.	.	.	.
=43	=43	=43	=43	=43	=43	=43
!	!	!	!LO:TX:a:t=pizzi.	!	!	!
8eL	8a#XL>	.	4FF#'<	.	4r	.
8F#	8f#	.	.	.	.	.
!	!	!	!	!	!LO:TX:a:t=pizz&colon;	!
8A#X	8cc#X	.	4F#'>	.	4a#X'< 4e	.
8e>	8a#	.	.	.	.	.
8g#X>	8ee	.	4F#'>	.	4a#'< 4e	.
8f#>J	8dd#XJ	.	.	.	.	.
=44	=44	=44	=44	=44	=44	=44
*^	*	*	*	*	*	*
4d#X>\	2.B>	4b	.	8B'>	.	8b 8d#X	.
.	.	.	.	8r	.	8r	.
*	*	*	*	*clefC4	*	*	*
!	!	!	!	!LO:TX:a:t=arco.	!	!LO:TX:a:t=arco.	!
4gn>	.	(>8a#XL	.	(>2e^<	.	(<2g^<	.
.	.	8ee	.	.	.	.	.
8f#>L	.	8dd#X	.	.	.	.	.
8e>J	.	8cc#XJ	.	.	.	.	.
=45	=45	=45	=45	=45	=45	=45	=45
*	*	*^	*	*	*	*	*
8d#X>	2.B>	8b	4reyy	.	4d#X)	.	4f#	.
8rg>	.	4ff#)	.	.	.	.	.	.
4g>	.	.	2a#X/	.	(>2e^<	.	4cc#X/	.
.	.	(8eeL	.	.	.	.	.	.
!	!	!LO:TX:b:t=con delicatesza.	!	!	!	!	!	!
8f#>L	.	8dd#X	.	.	.	.	4a#X/	.
8e>J	.	8cc#XJ)	.	.	.	.	.	.
*v	*v	*	*	*	*	*	*	*
*	*v	*v	*	*	*	*	*
=46	=46	=46	=46	=46	=46	=46
8d#X>L 8B>	8bL>	.	2d#X)	.	2b)^<	.
8B>	8f#	.	.	.	.	.
8d#>	8b	.	.	.	.	.
8f#>	8dd#X	.	.	.	.	.
8b>	8ff#	.	4r	.	(<8d#XL	.
8dd#y>J	8bbJ	.	.	.	8g#XJ	.
*clefG2	*	*	*clefF4	*	*	*
=47	=47	=47	=47	=47	=47	=47
!	!	!	!LO:TX:a:t=pizzi	!	!	!
8eeL	(8aa#XL	.	4FF#'<	.	4f#)	.
8f#	8ff#	.	.	.	.	.
8a#X	8ccc#X	.	4F#'>	.	4r	.
8ee	8aa#	.	.	.	.	.
!	!	!	!	!	!LO:TX:a:t=pizz&colon;	!
8gg#X	8eee	.	4F#'>	.	4a#X'< 4e	.
8ff#J	8ddd#XJ	.	.	.	.	.
!!LO:LB:g=original
=48	=48	=48	=48	=48	=48	=48
*^	*	*	*	*	*	*
4raayy	4dd#X 4b	4bb)	.	8BB`<	.	4b'< 4d#X	.
.	.	.	.	8r	.	.	.
!	!	!	!	!LO:TX:a:t=arco.	!LO:DY:rj	!	!
8cc#XL	2f#	(8aa#X^<L	.	(>2F#^<	p	4r	.
8ee	.	8ccc#X	.	.	.	.	.
8gg#X	.	8eee	.	.	.	4r	.
8ff#J	.	8ddd#XJ)	.	.	.	.	.
!!LO:LB:g=original
=49	=49	=49	=49	=49	=49	=49	=49
8dd#XL	4b	8bb^<L	.	4B)	.	4r	.
8ff#J	.	8ddd#XJ	.	.	.	.	.
!	!	!	!	!	!	!LO:TX:a:t=arco.	!
8cc#XL	2f#	(8aa#X^<L	.	(>2F#^>	pp	(<2f#	.
8ee	.	8ccc#X	.	.	.	.	.
8gg#X	.	8eee	.	.	.	.	.
8ff#J	.	8ddd#J	.	.	.	.	.
=50	=50	=50	=50	=50	=50	=50	=50
4rggyy	4dd#X 4b	4bb)	.	4B)	.	4b)	.
!	!	!	!	!	!LO:DY:a	!	!
8cc#XL	2f#	(8aa#X^<L	.	(<2FF#	pp	4r	.
8ee	.	8ccc#X	.	.	.	.	.
8ggn	.	8eee	.	.	.	4r	.
8ff#J	.	8ddd#XJ)	.	.	.	.	.
=51	=51	=51	=51	=51	=51	=51	=51
4rbbyy	4dd#X 4b	(8bbL	.	4BB)	.	4r	.
.	.	8ddd#XJ)	.	.	.	.	.
!	!	!	!	!	!	!	!LO:DY:rj
8cc#XL	2f#	(8aa#X^<L	.	(<2FF#	.	(<2f#	p
8ee	.	8ccc#X	.	.	.	.	.
8gg	.	8eee	.	.	.	.	.
8ff#J	.	8dddnJ	.	.	.	.	.
*v	*v	*	*	*	*	*	*
=52	=52	=52	=52	=52	=52	=52
4dd 4b	8bbL	.	4BB)	.	4b)	.
.	8dddJ)	.	.	.	.	.
!	!	!	!	!LO:DY:a	!	!
8cc#XL	(8aa#XL	.	[>2D^>	f	4r	.
8ddJ	8bbJ)	.	.	.	.	.
8cc#L	(8aa#L	.	.	.	4r	.
8ddJ	8bbJ)	.	.	.	.	.
=53	=53	=53	=53	=53	=53	=53
!	!	!	!LO:TX:a:t=poco a poco diminuendo.	!	!	!
8bL	8dd#XL	.	[>2.D]	.	2.rdd	.
8cc`>J	8aa`>J 8ee`>	.	.	.	.	.
8a#XL<	8cc#XL	.	.	.	.	.
8b`>J	8gg`>J 8ddn`>	.	.	.	.	.
8g#XL<	8bL	.	.	.	.	.
8any`>J	8ff#`>J 8ccn`>	.	.	.	.	.
!!LO:LB:g=original
=54	=54	=54	=54	=54	=54	=54
8f#XL	8a#XL>	.	[>2.D]	.	2.rdd	.
8gJ	8ee'<J 8b'<	.	.	.	.	.
8e#XL	8g#XL	.	.	.	.	.
8f#J	8dd'<J 8an'<	.	.	.	.	.
8d#XL	8f#L	.	.	.	.	.
8enJ	8cc'<J 8gn'<	.	.	.	.	.
*clefF4	*	*	*	*	*	*
=55	=55	=55	=55	=55	=55	=55
8c#XL	8e#XL	.	2.D]	.	2.rdd	.
8dJ	8bJ 8f#	.	.	.	.	.
8BL	8d#XL	.	.	.	.	.
8cnJ	8aJ 8eny	.	.	.	.	.
8A#XL	8c#XL	.	.	.	.	.
8BJ	8gJ 8dn	.	.	.	.	.
=56	=56	=56	=56	=56	=56	=56
4A 4D	4f# 4cn	.	4D	.	2.rdd	.
8F#XL	(>8d<L 8A<	.	4r	.	.	.
8GJ	8e-X<J 8c<	.	.	.	.	.
8F#L	8d<L 8A<	.	4r	.	.	.
8GJ	8e-<J 8c<	.	.	.	.	.
=57	=57	=57	=57	=57	=57	=57
8G#XL	8d^<L 8B	.	2.rF	.	2.rdd	.
8AJ	8f#XJ 8c)	.	.	.	.	.
8F#L	(>8dL 8A	.	.	.	.	.
8GnJ	8e-XJ 8c	.	.	.	.	.
8F#L	8dL 8A	.	.	.	.	.
8GJ	8e-J 8c	.	.	.	.	.
=58	=58	=58	=58	=58	=58	=58
8G#XL	8d^L 8B	.	2.rF	.	2.rdd	.
8AJ	8f#XJ 8c)	.	.	.	.	.
8F#L	(>8dL 8A	.	.	.	.	.
8GnJ	8e-XJ 8c	.	.	.	.	.
8F#L	8dL 8A	.	.	.	.	.
8GJ	8e-J 8c	.	.	.	.	.
=59	=59	=59	=59	=59	=59	=59
8G#XL	8d^<L 8B	.	2.rF	.	4r	.
8A	8f#XJ 8c)	.	.	.	.	.
8F#	8dL 8A	.	.	.	4r	.
8D	8eJ 8c	.	.	.	.	.
8E	8dL 8A	.	.	.	(<4d	.
8F#J	8cJ	.	.	.	.	.
!!LO:LB:g=original
=60	=60	=60	=60	=60	=60	=60
!	!LO:TX:b:t=legato.	!	!	!	!	!
*	*	*	*clefC4	*	*	*
!	!	!	!LO:TX:t=P:clef change before measure 62:problem	!	!	!
!	!	!	!LO:TX:t=espres.	!	!	!
8GL<	8B<L	.	(>4B	.	4g	.
8E	8G<	.	.	.	.	.
8C	8E<	.	4c	.	4a	.
8AA	8c<	.	.	.	.	.
8D	8F#<	.	8d^<L	.	4b/	.
8DDJ	8d<J	.	8cJ	.	.	.
=61	=61	=61	=61	=61	=61	=61
8GGL<	8B<L	.	4B	.	2g	.
8BB	8G<	.	.	.	.	.
8C	8A<	.	8cL	.	.	.
8D	8B<	.	8BJ	.	.	.
8E	8c<	.	4A)	.	4a)	.
8F#XJ	8d<J	.	.	.	.	.
!!LO:LB:g=original
=62	=62	=62	=62	=62	=62	=62
8GL	8BL	.	4G	.	(>2b	.
8A	8c	.	.	.	.	.
8B	8d	.	4g	>	.	.
8d	8b	.	.	.	.	.
8c	8a	.	4e	]	8ccL	.
8eJ	8gJ	.	.	.	8bJ	.
=63	=63	=63	=63	=63	=63	=63
8dL	8f#L	.	8f#L	.	4a/	.
8c	8a	.	8eJ	.	.	.
8B	8dd	.	2d	>	4b\)	.
!	!LO:TX:b:t=poco_:dur=7qe:ext=ud:problem:text with extention lines	!	!	!	!	!
8d	8fn	.	.	.	.	.
!	!	!	!	!	!LO:TX:t=P:the slur ends up:problem	!
8c	8e	.	.	.	(<4e	.
8BJ	8bJ	.	.	.	.	.
!!LO:LB:g=original
=64	=64	=64	=64	=64	=64	=64
8AL	8ccL	.	(>4c	]	4a\	.
8fn	8a	.	.	.	.	.
8d	8fn	.	4d	.	4b\	.
8B	8b	.	.	.	.	.
8e	8g#X	.	8eL	.	4cc	.
8EJ	8eeJ	.	8dJ)	.	.	.
=65	=65	=65	=65	=65	=65	=65
8AL	8ccL>	.	4c	.	2a^<\	.
8c>	8a	.	.	.	.	.
8d>	8b	.	8fnL	.	.	.
8e>	8cc	.	8eJ	.	.	.
8f#X>	8dd	.	4d	.	4b	.
8g#X>J	8eeJ	.	.	.	.	.
!!LO:LB:g=original
=66	=66	=66	=66	=66	=66	=66
8a>L	8ccL>	<	4c	.	4.cc	.
8b>	8dd	.	.	.	.	.
8cc>	8ee	.	4A	.	.	.
8b>	8bb	.	.	.	8dd	.
8cc>	8aa	.	8aL	.	4ee	.
8cc#X>J	8eeJ	.	8gJ	.	.	.
=67	=67	=67	=67	=67	=67	=67
8dd>L	8ff#L>	.	(>8f#L	>	4.a/)	.
8ee>	8gg	.	8eJ	.	.	.
8ff#>	8aa	.	4d)	]	.	.
8gg>	8ccc#X	.	.	.	8r	.
8ff#>	8ddd	.	4r	.	4r	.
8dd>J	(>8ff#J	.	.	.	.	.
*clefG2	*	*	*	*	*	*
=68	=68	=68	=68	=68	=68	=68
*	*^	*	*	*	*	*
!LO:TX:b:t=sempre legato.	!	!	!	!LO:TX:t=P:problem: 1 nad pauzą	!	!	!
!	!	!	!	!LO:TX:a:t=1	!	!	!
8ccL	8ddd	4ee)	f	2.rc	.	(<2.d^<	.
8a	4ccc	.	.	.	.	.	.
8f#	.	8ee-XL	.	.	.	.	.
8g	8bbL	8dd	.	.	.	.	.
8e	8bb-X	8cc#X	.	.	.	.	.
8f#J	[8aaJ	8ccnJ	.	.	.	.	.
=69	=69	=69	=69	=69	=69	=69	=69
8gL	8aa]	4b	.	4r	.	4g)	.
8e	4gg	.	.	.	.	.	.
8c#X	.	8b-XL	.	(>2A^<	.	4r	.
8d	8ff#XL	8a	.	.	.	.	.
8B	8ffn	8g#X	.	.	.	4r	.
8c#J	[8eeJ	8gnJ	.	.	.	.	.
*clefF4	*	*	*	*	*	*	*
=70	=70	=70	=70	=70	=70	=70	=70
8dL	8ee]	4fn	.	4d)	.	4r	.
8B-X	4dd	.	.	.	.	.	.
8G#X	.	4e	.	4r	.	(<2e^<	.
8A	8cc#XL	.	.	.	.	.	.
8F#	8ccn	8d#XL	.	4r	.	.	.
8G#J	[8bJ	8dnJ	.	.	.	.	.
*	*	*	*	*clefF4	*	*	*
=71	=71	=71	=71	=71	=71	=71	=71
8AL	8b]	4c	.	4r	.	4a)	.
8Fn	4a	.	.	.	.	.	.
8D#X	.	4B	.	(<4BB	>	4r	.
8E	8gL	.	.	.	.	.	.
8AA	8f#X	8e-XL 8c	.	8AAL	]	4r	.
8BBJ	8gJ	8dJ	.	8BBJ)	.	.	.
!!LO:LB:g=original
=72	=72	=72	=72	=72	=72	=72	=72
2.C	2e/	2.g 2.c 2.G<	fz	2.C	.	(>8eL	<
.	.	.	.	.	.	8d#X	.
.	.	.	.	.	.	8e	.
.	.	.	.	.	.	8f#	.
.	4e-X/	.	.	.	.	8g	.
.	.	.	.	.	.	8aJ	[
*	*v	*v	*	*	*	*	*
=73	=73	=73	=73	=73	=73	=73
2.GG\	2.g 2.d 2.B< 2.G<	.	2.GG	.	8bL	.
.	.	.	.	.	8cc	.
.	.	.	.	.	8ee	>
.	.	.	.	.	8dd	.
.	.	.	.	.	8b	]
.	.	.	.	.	8gJ)	.
!!LO:LB:g=original
=74	=74	=74	=74	=74	=74	=74
*	*^	*	*	*	*	*
!	!	!	!LO:HP:b=2	!	!	!	!
(8CTL<	(>2dd	2.g 2.e	p<	2.C	.	(>2e	.
8BB	.	.	.	.	.	.	.
8C	.	.	.	.	.	.	.
8D	.	.	.	.	.	.	.
8E	4cc)	.	.	.	.	4cc	.
8F#J	.	.	[	.	.	.	.
=75	=75	=75	=75	=75	=75	=75	=75
8GL	(>2cc	2.g 2.d	[	2.GG	.	2d	.
8A	.	.	.	.	.	.	.
8c	.	.	.	.	.	.	.
8B	.	.	.	.	.	.	.
8G	4b)	.	.	.	.	[>4b)	<
8DJ)	.	.	.	.	.	.	.
=76	=76	=76	=76	=76	=76	=76	=76
*	*	*^	*	*	*^	*	*
2GG	(>2b	2d	2.B\	.	8GGL	.	.	4b]	[
.	.	.	.	.	8FF#X	.	<	.	.
.	.	.	.	.	8GG	.	.	4g	.
.	.	.	.	.	8AA	.	.	.	.
4BB	4a	8d#XL	.	.	8BB	.	.	4f#X	.
.	.	8f#J	.	.	8D#XJ	<	.	.	.
=77	=77	=77	=77	=77	=77	=77	=77	=77	=77
2E	4a	2.e	2B\	.	8EL	.	[	2e^<	.
.	.	.	.	.	8F#	.	.	.	.
.	2g	.	.	.	8A	.	.	.	.
.	.	.	.	.	8G	.	.	.	.
4C#X\	.	.	4A#X\	.	8E	.	.	4g	.
.	.	.	.	.	8C#XJ	.	.	.	.
*	*	*v	*v	*	*	*	*	*	*
*	*v	*v	*	*	*	*	*	*
*	*	*	*	*v	*v	*	*
=78	=78	=78	=78	=78	=78	=78
4D	4d) 4B	.	4D	.	4d	.
4r	4r	.	4r	.	(>8c#XL	<
.	.	.	.	.	8dJ	[
!	!	!	!LO:TX:a:t=pizz.	!	!	!
4D\ 4DD\	8e^<L 8c 8F#X<	.	4DD'<	.	8ccnL	>
.	8dJ	.	.	.	8bJ)	]
=79	=79	=79	=79	=79	=79	=79
!!LO:TX:a:B:t=1.a
!!LO:TX:a:B:t=1|a.
*>B1	*>B1	*	*>B1	*>B1	*>B1	*>B1
4GG\	8gL 8B< 8G<	.	4GG'<	.	4g	.
.	(8d	.	.	.	.	.
4r	8g	.	4r	.	4r	.
.	8bJ)	.	.	.	.	.
!	!	!	!LO:TX:t=arco.	!	!	!
4d	4dd^<	.	4G	.	4b	.
!	!	!	!LO:TX:t=fine.	!	!	!
=80:|!	=80:|!	=80:|!	=80:|!	=80:|!	=80:|!	=80:|!
!!LO:TX:a:B:t=2.a
!!LO:TX:a:B:t=2|a.
*>B2	*>B2	*	*>B2	*>B2	*>B2	*>B2
!	!	!	!	!	!LO:TX:t=Fine.	!
4GG	4g	.	4GG'<	.	4g	.
!	!LO:TX:t=P:metrum 3/4 na nowej stronie, brak kasownika w źródle ale inaczej zmiana tonacji nie działa:problem	!	!	!	!	!
4GGG	4r	.	4r	.	4r	.
!!LO:LB:g=original
!LO:TX:b:t=Fine	!	!	!	!	!	!
!!LO:PB:g=original
==	==	==	==	==	==	==
*>C	*>C	*	*>C	*>C	*>C	*>C
*M3/4	*M3/4	*	*I"TRIO.	*	*I"TRIO.	*
*k[]	*k[]	*	*M3/4	*	*M3/4	*
!	!LO:TX:a:t=sotto voce.	!	!	!	!	!
!	!LO:TX:a:t=TRIO:problem:TRIO z lewej strony akolady	!	!	!	!	!
*	*	*	*k[]	*	*k[]	*
4r	4r	.	4r	.	(<8aL	.
.	.	.	.	.	8gJ	.
*	*	*	*clefC4	*	*	*
=81	=81	=81	=81	=81	=81	=81
*	*^	*	*	*	*	*
!	!	!	!	!LO:TX:a:t=dolce.	!	!LO:TX:a:t=dolce.	!
2.GG\	2.f 2.d	(4B<	p	4d`>	.	4f	.
.	.	4A<	.	(>4A	.	8gL	.
.	.	.	.	.	.	8f	.
.	.	4G<)	.	4B	.	8e	.
.	.	.	.	.	.	8fJ	.
=82	=82	=82	=82	=82	=82	=82	=82
*^	*	*^	*	*	*	*	*
2G/	2.C\ 2.CC\	4e	4.rFyy	2.c	.	4c	.	4e)	.
.	.	8eL	.	.	.	4G/)	.	(>\8gL	.
.	.	8eJ	4.e\	.	.	.	.	8ccJ	.
4ryy	.	4G<	.	.	.	(>4g	.	4ee	.
*v	*v	*	*	*	*	*	*	*	*
*	*	*v	*v	*	*	*	*	*
*	*v	*v	*	*	*	*	*
=83	=83	=83	=83	=83	=83	=83
2GG\	2f 2d 2G<	.	4f#	.	4dd	.
.	.	.	8gL	>	8eeL	>
.	.	.	8f#	.	8dd	.
4GG\	4f 4d 4G<	.	8d	.	8b	.
.	.	.	8f#J)	]	8gJ	]
=84	=84	=84	=84	=84	=84	=84
2C\	2e 2c 2G<	.	[>2.e	>	[>2.gg^<)	.
4r	4g	.	.	.	.	.
=85	=85	=85	=85	=85	=85	=85
*	*^	*	*	*	*	*
!	!LO:TX:t=dolce.	!	!	!	!	!	!
4r	8.gL	2g	.	2e]^<	.	2gg]	.
.	16eeJk	.	.	.	.	.	.
4r	4ee	.	.	.	.	.	.
4G	4dd	4g 4f	.	4r	.	4r	.
=86	=86	=86	=86	=86	=86	=86	=86
*^	*	*	*	*	*	*	*
8.GL	2.G	2cc 2g	8e	.	2.rF	.	2.rdd	.
.	.	.	8rcyy	.	.	.	.	.
16eJk	.	.	.	.	.	.	.	.
4e	.	.	2rcyy	.	.	.	.	.
4d	.	[4b 4f	.	.	.	.	.	.
=87	=87	=87	=87	=87	=87	=87	=87	=87
2c	2G	8.bL]	2e	.	2.rF	.	2.rdd	.
.	.	16aJk	.	.	.	.	.	.
.	.	4a	.	.	.	.	.	.
4B/	4ryy	4g 4d	4rByy	.	.	.	.	.
*v	*v	*	*	*	*	*	*	*
*	*v	*v	*	*	*	*	*
=88	=88	=88	=88	=88	=88	=88
*	*	*	*clefF4	*	*	*
!	!	!	!LO:TX:t=P:clef change before measure 90:problem	!	!	!LO:DY:rj
!	!	!	!LO:TX:a:t=pizzi.	!	!	!
4A 4D	4f#X 4d 4c	f	4D'>	f	2d^>	fz
4D\ 4GG\	4g 4d 4B<	.	4GG'<	.	.	.
4r	4r	.	4r	.	8dL	.
.	.	.	.	.	8eJ	.
!!LO:LB:g=original
*	*	*	*clefC4	*	*	*
!!LO:LB:g=original
=89	=89	=89	=89	=89	=89	=89
*^	*	*	*	*	*	*
*	*	*^	*	*	*	*	*
!	!	!	!	!LO:DY:rj	!LO:TX:a:t=arco.	!	!	!
4A/	4D	4a	2f 2d	p	(>4d	.	4f	.
8.A/L	4DD\	8.aL	.	.	4A	.	(<8eL	.
.	.	.	.	.	.	.	8f	.
16AJ	.	16aJk	.	.	.	.	.	.
4A/	4FF\	4a	4rDyy	.	4d	.	8g	.
.	.	.	.	.	.	.	8fJ	.
*	*	*v	*v	*	*	*	*	*
*v	*v	*	*	*	*	*	*
=90	=90	=90	=90	=90	=90	=90
2.AA\ 2.AAA\	2.a^< 2.e 2.c 2.A<	.	4c	.	4e)	.
.	.	.	4A	.	(>8aL	.
.	.	.	.	.	8ccJ	.
.	.	.	4c)	.	4ee	.
!!LO:LB:g=original
*	*	*	*clefF4	*	*	*
=91	=91	=91	=91	=91	=91	=91
*	*^	*	*	*	*	*
*	*	*^	*	*	*	*	*
2.D\ 2.DD\	2a	4f#X	2c	.	2.c 2.D	.	4dd	.
.	.	8.f#L	.	.	.	.	8eeL	>
.	.	.	.	.	.	.	8dd	.
.	.	16f#Jk	.	.	.	.	.	.
.	4rggyy	4f#\	4ryy	.	.	.	8cc	.
.	.	.	.	.	.	.	8aJ)	]
=92	=92	=92	=92	=92	=92	=92	=92	=92
*	*	*	*	*	*^	*	*	*
2.GG\	2a^>	2.fn	4c\	.	(<4c	2D^ 2GG	.	2dd	.
.	.	.	2B\	.	4B)	.	.	.	.
.	4g	.	.	.	4r	4rFFyy	.	4g	.
*	*	*v	*v	*	*	*	*	*	*
*	*v	*v	*	*	*	*	*	*
*	*	*	*	*	*	*	*
*	*	*	*v	*v	*	*	*
*	*	*	*clefC4	*	*	*
=93	=93	=93	=93	=93	=93	=93
[<2.C\ [2.CC\	(>2e 2c 2G<	.	(>4.G	.	(>4.g	.
.	.	.	8eL	<	8eeL	.
.	4f 4B< 4G<	.	8d	.	8dd	.
.	.	.	8eJ	[	8eeJ	.
=94	=94	=94	=94	=94	=94	=94
2.C\] 2.CC\]	2e 2c 2G<	.	4c)	.	4cc	.
.	.	.	(>8B\L	.	8bL	.
.	.	.	8A	.	8a	.
.	4d#X 4c 4A<	.	8GM>	]	8g)	.
.	.	.	8F#XJ	.	8f#XJ	.
=95	=95	=95	=95	=95	=95	=95
[<2.C\ [2.CC\	2e 2c 2G<	.	(>4.G)	>	4.g	.
.	.	.	8eL	.	(>8eeL	.
.	4f 4B< 4G<	.	8d	.	8dd	.
.	.	.	8eJ	.	8eeJ	.
=96	=96	=96	=96	=96	=96	=96
4C\] 4CC\]	4e 4c 4G<	.	4c)	.	4cc)	.
4CC\	4r)	.	4r	.	4r	.
=:|!|:	=:|!|:	=:|!|:	=:|!|:	=:|!|:	=:|!|:	=:|!|:
*>D	*>D	*	*clefF4	*	*	*
!	!	!	!	!LO:DY:rj	!	!LO:DY:rj
(8EL	(8eL	f	(>8EL	f<	(<8eL	ff
8FJ	8fJ	.	8FJ	[	8fJ	.
!!LO:LB:g=original
=97	=97	=97	=97	=97	=97	=97
4.G)	4.g)	.	8G`>)	.	8g)	.
.	.	.	8r	]	8r	.
.	.	.	4r	.	4r	.
8B-XL	(>8b-XL	.	.	.	.	.
8A	8a	.	4r	.	4r	.
8B-J	8b-J	.	.	.	.	.
!!LO:LB:g=original
=98	=98	=98	=98	=98	=98	=98
8GL<	8gL	.	4r	.	4r	.
8E	8e	.	.	.	.	.
8C#X	8c#X	.	4r	.	4r	.
8BB-X	8B-X	.	.	.	.	.
8GG	8G<	.	(<8GGL	<	(<8GL	.
8AAJ	8A<J	.	8AAJ	.	8AJ	.
=99	=99	=99	=99	=99	=99	=99
4BB-X\	4B-X</)	.	4BB-X)	.	4B-X)	.
8r	8r	.	4r	[	4r	.
(8B-yL	(8b-XL	.	.	.	.	.
8A	8a	.	4r	.	4r	.
8B-yJ	8b-J	.	.	.	.	.
!!LO:LB:g=original
=100	=100	=100	=100	=100	=100	=100
4G)	4g)	.	4r	.	4r	.
!	!	!LO:DY:rj	!	!LO:DY:rj	!	!
4e'> 4E'>	4cc#X 4b-X 4g	f<	(>4E	f	4b-X 4e 4G	.
4d'> 4D'>	4dd/ 4b-/ 4g/	[	4D	.	4b- 4d 4G	.
=101	=101	=101	=101	=101	=101	=101
4c#X 4C#X	4ee/ 4b-X/ 4g/	.	4C#X)	.	4b-X 4e 4G	.
8r	8r	[	4r	.	4r	.
*clefG2	*	*	*	*	*	*
(8b-XL<	(8bb-XL	.	.	.	.	.
8a	8aa	.	4r	.	4r	.
8b-J	8bb-J	.	.	.	.	.
=102	=102	=102	=102	=102	=102	=102
8gL	8ggL	.	4r	.	4r	.
8e	8ee	.	.	.	.	.
8c#X	8cc#X	.	4r	.	4r	.
*clefF4	*	*	*	*	*	*
8B-X	8b-X	.	.	.	.	.
8G	8g	.	(>8GL	<	(<8gL	.
8AJ	8aJ	.	8AJ	[	8aJ	.
=103	=103	=103	=103	=103	=103	=103
8B-XL	8b-XL	.	4B-X`>)	.	4b-X`>)	.
8G	8g	.	.	.	.	.
8E	8e	.	4r	.	4r	.
8C#X)	8c#X	.	.	.	.	.
!	!	!	!	!LO:HP:a	!	!
8GG	8G<	.	(<8GGL	<	(<8GL	.
8AAJ	8A<J	.	8AAJ	[[	8AJ	.
=104	=104	=104	=104	=104	=104	=104
4BB-X\	4B-X</)	.	4BB-X`<)	.	4B-X)	.
4rGG	4rG<	.	4r	.	4r	.
!	!	!LO:DY:rj	!	!	!	!
4Cn\ (<4CCny\	(>4A#X<^^> 4E<^^>	f	(<4C	.	(<4A#X	.
!!LO:LB:g=original
=105	=105	=105	=105	=105	=105	=105
4BB\ 4BBB\)	4B< 4D#X<)	.	4BBn)	.	4Bn)	.
8r	8r	.	4r	.	4r	.
(8cL	(8ccL	.	.	.	.	.
8B	8b	.	4r	.	4r	.
8cJ	8ccJ	.	.	.	.	.
!!LO:LB:g=original
=106	=106	=106	=106	=106	=106	=106
8AL	8aL	.	4r	.	4r	.
8F#X	8f#X	.	.	.	.	.
8D#X	8d#X	.	4r	.	4r	.
8C	8c	.	.	.	.	.
8AA	8A	.	(<8AAL	<	(<8AL	.
8BBJ)	8BJ)	.	8BBJ	.	8BJ	.
=107	=107	=107	=107	=107	=107	=107
4C\	4c	.	4C`<)	[	4c)	.
8r	8r	.	4r	.	4r	.
(8cL	(8ccL	.	.	.	.	.
8B	8b	.	4r	.	4r	.
8cJ	8ccJ	.	.	.	.	.
=108	=108	=108	=108	=108	=108	=108
4A)	4a\)	.	4r	.	4r	.
!	!	!LO:DY:rj	!	!	!	!LO:DY:rj
4c'> 4C'>	4dd#X'< 4a'< 4f#X'<	f<	4CC`>	.	4dd#X\`> 4f#X\	f
4c'> 4C'>	4ee'< 4a'< 4e'<	.	(<4C^>	.	4ee\`> 4a\ 4e\	.
=109	=109	=109	=109	=109	=109	=109
4B'> 4BB'>	4ff#X'< 4a'< 4d#X'<	[	4BB`<)	.	4ff#X\`> 4a\ 4d#X\	.
8r	8r	.	4r	.	4r	.
*clefG2	*	*	*	*	*	*
(>8ccL	(8cccL	.	.	.	.	.
8b	8bb	.	4r	.	4r	.
8ccJ	8cccJ	.	.	.	.	.
!!LO:LB:g=original
=110	=110	=110	=110	=110	=110	=110
8aL	8aaL	.	4r	.	4r	.
8f#X	8ff#X	.	.	.	.	.
8d#X	8dd#X	.	4r	.	4r	.
8c	8cc	.	.	.	.	.
8A	8a	.	(>8AL	<	(<8aL	.
8BJ	8bJ	.	8BJ	.	8bJ	.
*clefF4	*	*	*	*	*	*
=111	=111	=111	=111	=111	=111	=111
8cL	8ccL	.	4c)	[	4cc)	.
8A	8a	.	.	.	.	.
8F#X	8f#X	.	4r	.	4r	.
8D#X	8d#X	.	.	.	.	.
!	!	!	!	!LO:HP:a	!	!
8AA	8A<	.	(<8AAL	<	(<8AL	.
8BBJ)	8B<J)	.	8BBJ	[[	8BJ	.
!!LO:LB:g=original
=112	=112	=112	=112	=112	=112	=112
!	!	!	!	!LO:HP:a	!	!
4C\)	4c	.	2C	>	2c)	.
4r	4r	.	.	.	.	.
!	!	!LO:DY:rj	!	!	!	!
4BB\	4f#X 4d#X 4B 4A<	f	4BB)	]	4B	.
=113	=113	=113	=113	=113	=113	=113
4.BB\	4g 4e 4B< 4G<	.	(>4.BB	.	(<4.B	.
!	!	!LO:DY:rj	!	!	!	!
.	8b^^>L 8g^^> 8e^^>	p	.	.	.	.
(8BBBL	8BJ	.	8GL	.	8gL	.
8CC#X	8b^^>L 8f^^>	.	8F#X	.	8f#X	.
8DD#XJ	8A<J	.	8GJ	.	8gJ)	.
=114	=114	=114	=114	=114	=114	=114
4.EE\)	(<8eL 8G<	.	4E)	.	4e	.
.	8B	.	.	.	.	.
.	8e	.	4r	.	4r	.
(8EL	8gJ)	<	.	.	.	.
8D	4ee	.	4r	.	4r	.
8CJ	.	[[	.	.	.	.
=115	=115	=115	=115	=115	=115	=115
4.BB\)	4b	.	2.rF	.	(<4.B	.
.	8bb^^>L 8gg^^> 8ee^^>	.	.	.	.	.
!	!	!	!	!	!	!LO:DY:a:rj
(8BBBL	8bJ	.	.	.	8gL	pp
8CC#X	8bb^^>L 8ff#X^^>	.	.	.	8f#X	.
8DD#XJ	8aJ	.	.	.	8gJ	.
=116	=116	=116	=116	=116	=116	=116
4EE)	8eeL 8g	.	2.rF	.	4e)	.
.	(>8b	.	.	.	.	.
4r	8ee	.	.	.	4r	.
.	8ggJ	.	.	.	.	.
(8EEL	4eee)	.	.	.	4r	.
8FFJ)	.	.	.	.	.	.
!!LO:LB:g=original
*ped	*	*	*	*	*	*
=117	=117	=117	=117	=117	=117	=117
*	*8va	*	*clefC4	*	*	*
!	!	!LO:DY:rj	!LO:TX:a:t=P:clef change in the end of measure 119:problem	!LO:DY:rj	!	!
!	!	!	!LO:TX:t=P:system breaking:problem	!	!	!
2GG 2GGG	2ggg 2fff 2ddd 2bb 2gg 2ff	fz	(>4.f	p	(>4.dd	>
.	.	.	8dL	.	8bL	.
*	*X8va	*	*	*	*	*
4r	4r	.	8f	.	8dd	]
.	.	.	8cJ	]]	8aJ	.
=118	=118	=118	=118	=118	=118	=118
!	!LO:TX:a:t=loco.	!LO:DY:rj	!	!	!	!
4d 4G	4b 4g 4f	fz	4B)	.	4g)	.
!	!	!LO:DY:rj	!	!	!	!
4ff> 4dd> 4g>	4bb/ 4gg/	fz	4r	.	4r	.
!	!	!LO:DY:rj	!	!	!	!
*8va	*8va	*	*	*	*	*
!LO:TX:b:t=P:8va przy lewej ręce ukryte:problem	!	!	!	!	!	!
4fff> 4ddd> 4gg>	4bbb/ 4ggg/	fz	4r	.	4r	.
!!LO:LB:g=original
*X8va	*X8va	*	*	*	*	*
!!LO:LB:g=original
=119	=119	=119	=119	=119	=119	=119
*	*	*^	*	*	*	*
!	!LO:TX:a:t=poco\ rall\ a\ Tempo.:dur=9q:ext=s:problem:text with extention lines	!LO:DY:rj	!	!	!LO:DY:rj	!LO:TX:t=poco rallen&colon;	!
[<2.GG\ [2.GGG\	[2.f^> [2.d [>2.B [>2.G<	fz	p	(>8fL	p>	(>8ddL	.
!	!	!	!	!LO:TX:t=poco ritard.	!	!	!
.	.	.	.	8e	.	8cc#X	.
!	!	!	!	!	!	!	!LO:HP:a
.	.	.	.	8g	]	8ee	>
.	.	.	.	8f	.	8dd	.
.	.	.	.	8d	.	8b	.
.	.	.	.	8cJ	.	8aJ	]
*	*	*v	*v	*	*	*	*
=120	=120	=120	=120	=120	=120	=120
2.GG\] 2.GGG\]	2.f] 2.d] 2.B] 2.G<]	.	4B)	.	2.g)	.
.	.	.	4f^<	.	.	.
.	.	.	4e	.	.	.
*Xped	*	*	*	*	*	*
=121	=121	=121	=121	=121	=121	=121
*	*^	*	*	*	*	*
!	!	!	!	!	!	!LO:TX:t=a tempo	!
2.GG\	2.f 2.d	4B</	.	4d`>	.	(<4f	.
!	!	!	!	!LO:TX:a:t=dolce.	!	!	!
.	.	4A</	.	(>4A	.	8gL	.
.	.	.	.	.	.	8f	.
.	.	4G</	.	4B	.	8e	.
.	.	.	.	.	.	8fJ)	.
=122	=122	=122	=122	=122	=122	=122	=122
*^	*	*^	*	*	*	*	*
2G/	2.C\ 2.CC\	4e	4.rFyy	2.c	.	4c)	.	4e	.
.	.	8eL	.	.	.	4G	.	(>\8gL	.
.	.	8eJ	4.e\	.	.	.	.	8ccJ	.
4ryy	.	4G<	.	.	.	(>4g	.	4ee	.
*v	*v	*	*	*	*	*	*	*	*
*	*	*v	*v	*	*	*	*	*
*	*v	*v	*	*	*	*	*
=123	=123	=123	=123	=123	=123	=123
2GG\	(>2f 2d 2B< 2G<	.	4f	.	4dd	.
.	.	.	8gL	>	8eeL	>
.	.	.	8f	.	8dd	.
4GG\	4f 4d 4G<	.	8d	.	8b	]
.	.	.	8fJ)	]	8gJ)	.
=124	=124	=124	=124	=124	=124	=124
2C\	2e 2c 2G<)	.	[>2.e	>	[>2.gg^<	.
!	!LO:TX:b:t=dolce.	!	!	!	!	!
4r	4g	.	.	.	.	.
=125	=125	=125	=125	=125	=125	=125
*	*^	*	*	*	*	*
4r	8.gL	2g	.	2e]^<	.	2gg]	.
.	16eeJk	.	.	.	.	.	.
4r	4ee	.	.	.	.	.	.
4G	4dd	4g 4f	.	4r	.	4r	.
=126	=126	=126	=126	=126	=126	=126	=126
*^	*	*	*	*	*	*	*
8.GL	2.G	2cc 2g	8e	.	2.rc	.	2.rdd	.
.	.	.	8rdyy	.	.	.	.	.
16eJk	.	.	.	.	.	.	.	.
4e	.	.	2reyy	.	.	.	.	.
4d	.	[4b 4f	.	.	.	.	.	.
=127	=127	=127	=127	=127	=127	=127	=127	=127
2c	2.G	8.bL]	2e	.	2.rc	.	2.rdd	.
.	.	16aJk	.	.	.	.	.	.
.	.	4a	.	.	.	.	.	.
4B	.	4g 4d	4rByy	.	.	.	.	.
!!LO:LB:g=original
*v	*v	*	*	*	*	*	*	*
*	*v	*v	*	*	*	*	*
!!LO:LB:g=original
=128	=128	=128	=128	=128	=128	=128
*	*	*	*clefF4	*	*	*
!	!	!	!LO:TX:a:t=P:clef change in the end of measure 129:problem	!	!	!
!	!	!	!LO:TX:t=P:system breaking:problem	!	!	!
!	!	!	!LO:TX:a:t=pizz.	!	!	!
4A 4D	4f#X 4d 4c	.	4D'>	.	2d	.
4D\ 4GG\	4g 4d 4B<	.	4GG'<	.	.	.
4r	4r	.	4r	.	8dL	.
.	.	.	.	.	8eJ	.
!!LO:LB:g=original
*	*	*	*clefC4	*	*	*
=129	=129	=129	=129	=129	=129	=129
*^	*	*	*	*	*	*
*	*	*^	*	*	*	*	*
!	!	!	!	!LO:DY:rj	!LO:TX:t=arco	!	!	!
4A/	4D	4a	2f 2d	p	(>4d	.	4f	.
8.A/L	4DD\	8.aL	.	.	4A	.	(<8eL	.
.	.	.	.	.	.	.	8f	.
16AJ	.	16aJk	.	.	.	.	.	.
4A/	4FF\	4a	4rDyy	.	4d	.	8g	.
.	.	.	.	.	.	.	8fJ	.
*	*	*v	*v	*	*	*	*	*
*v	*v	*	*	*	*	*	*
=130	=130	=130	=130	=130	=130	=130
2.AA\ 2.AAA\	2.a 2.e 2.c 2.A<	<	4c	.	4e)	.
.	.	.	4A	.	(>8aL	.
.	.	.	.	.	8ccJ	.
.	.	.	4c)	.	4ee	.
*	*	*	*clefF4	*	*	*
=131	=131	=131	=131	=131	=131	=131
*	*^	*	*	*	*	*
*	*	*^	*	*	*	*	*
2.D\ 2.DD\	2a	4f#X	2c	.	2.c 2.D	.	4dd	.
.	.	8.f#L	.	.	.	.	8eeL	>
.	.	.	.	.	.	.	8dd	.
.	.	16f#Jk	.	.	.	.	.	.
.	4raayy	4f#\	4ryy	.	.	.	8cc	.
.	.	.	.	.	.	.	8aJ	]
*	*	*v	*v	*	*	*	*	*
=132	=132	=132	=132	=132	=132	=132	=132
*	*	*	*	*^	*	*	*
2.GG\	2a^> 2fn	4c\	.	(<4c	2D 2GG^<	.	2dd)	.
!	!	!	!	!LO:TX:a:t=a tempo.	!	!	!	!
.	.	2B\	.	4B)	.	.	.	.
.	(>4g	.	.	4r	4rGGyy	.	4g	.
*	*v	*v	*	*	*	*	*	*
*	*	*	*	*	*	*	*
*	*	*	*v	*v	*	*	*
*	*	*	*clefC4	*	*	*
=133	=133	=133	=133	=133	=133	=133
[<2.C\ [2.CC\	2e 2c 2G<	.	(>4.G	.	4.g	.
.	.	.	8eL	<	8eeL	.
.	4f 4B< 4G<	.	8d	.	8dd	.
.	.	.	8eJ	[	8eeJ	.
=134	=134	=134	=134	=134	=134	=134
2.C\] 2.CC\]	2e 2c 2G<	.	4c)	>	(<4cc	.
.	.	.	(>\8BL	.	8bL	.
!	!	!	!	!	!LO:TX:t=Scherzo da Capo al Fin.	!
.	.	.	8A	]	8a	.
.	4d#X 4c 4A<	.	8GM>	.	8g	.
.	.	.	8F#XJ	.	8f#XJ)	.
=135	=135	=135	=135	=135	=135	=135
!LO:TX:b:t=scherzo D | C al fine.	!	!	!LO:TX:t=Scherzo da capo al fine.	!	!	!
[<2.C\ [2.CC\	2en 2c 2G<	.	4.G/)	.	4.g	.
.	.	.	(>8eL	.	8eeL	.
.	4f 4B< 4G<	.	8d^<	.	8dd	.
.	.	.	8eJ	.	8eeJ	.
=136	=136	=136	=136	=136	=136	=136
4C\] 4CC\]	4e 4c 4G<)	.	4c)	.	4cc	.
4CC	4r	.	4r	.	4r	.
=:|!	=:|!	=:|!	=:|!	=:|!	=:|!	=:|!
*-	*-	*-	*-	*-	*-	*-
!!!system-decoration: s1,s2{(s3,s4)}
!!title: @{OTL}; @{OPS} @{ONM} publisher: @{PPR}
!!!RDF**kern: > = above
!!!RDF**kern: < = below
!!!RDF**kern: N = linked
!!!RDF**kern: i = editorial accidental
!!!ENC: Emilia Ziętek
!!!END: 2019-10-03
!!!EED: Jędrzej Mróz
!!!EST: revision finished 2019-10-10
!!!rism-genre: Trio
!!!rism-key: G minor
!!!rism-opus: op.  8
!!!rism-title: Trio in G minor op.  8
!!!rism-permalink: https://opac.rism.info/search?id=300605222&View=rism
!!!RDF**dynam: > = "dim." fontstyle="normal"
!!!RDF**dynam: < = "cres" fontstyle="normal"
!!!ENC: Jędrzej Mróz
!!!END: 2019-10-07
!!!EED: Mateusz Mrugas
!!!EST: 2019-10-13
!!!END: 2019-10-06